Papirus/48x48/devices/video-television.svg

<?xml version="1.0" encoding="UTF-8" standalone="no"?>
<svg xmlns="http://www.w3.org/2000/svg" height="48" viewBox="0 0 48 48" width="48" version="1.1">
 <rect ry="2" rx="2" transform="matrix(0,-1,-1,0,0,0)" height="24" width="32" y="-36" x="-42" fill="#7e7e7e"/>
 <rect transform="matrix(0,-1,-1,0,0,0)" rx="2" ry="2" height="40" width="32" y="-44" x="-38" fill="#6d6d6d"/>
 <rect ry="0" rx="0" transform="matrix(0,-1,-1,0,0,0)" height="34" width="26" y="-41" x="-35" fill="#464646"/>
 <path opacity=".8" fill="#fff" d="m11 14v4h4v12h4v-12h4v-4h-8zm14 0 3 16h6l3-16h-4l-2 10.666-2-10.666z"/>
 <path opacity=".2" fill="#fff" d="m6 6c-1.108 0-2 0.892-2 2v1c0-1.108 0.892-2 2-2h36c1.108 0 2 0.892 2 2v-1c0-1.108-0.892-2-2-2h-36z"/>
 <path opacity=".2" d="m12 40v1c0 1.108 0.892 2 2 2h20c1.108 0 2-0.892 2-2v-1c0 1.108-0.892 2-2 2h-20c-1.108 0-2-0.892-2-2z"/>
 <path opacity=".2" d="m4 36v1c0 1.108 0.892 2 2 2h36c1.108 0 2-0.892 2-2v-1c0 1.108-0.892 2-2 2h-36c-1.108 0-2-0.892-2-2z"/>
</svg>

<svg xmlns="http://www.w3.org/2000/svg" width="48" height="48" version="1.1">
 <rect style="opacity:0.2" width="32" height="24" x="-43" y="-36" rx="2" ry="2" transform="matrix(0,-1,-1,0,0,0)"/>
 <rect fill="#7e7e7e" width="32" height="24" x="-42" y="-36" rx="2" ry="2" transform="matrix(0,-1,-1,0,0,0)"/>
 <rect style="opacity:0.2" width="32" height="40" x="-39" y="-44" rx="2" ry="2" transform="matrix(0,-1,-1,0,0,0)"/>
 <rect style="fill:#8e8e8e" width="32" height="40" x="-38" y="-44" rx="2" ry="2" transform="matrix(0,-1,-1,0,0,0)"/>
 <rect fill="#4d4d4d" width="26" height="34" x="-35" y="-41" rx="0" ry="0" transform="matrix(0,-1,-1,0,0,0)"/>
 <path fill="#ffffff" opacity=".2" d="m6 6c-1.108 0-2 0.892-2 2v1c0-1.108 0.892-2 2-2h36c1.108 0 2 0.892 2 2v-1c0-1.108-0.892-2-2-2h-36z"/>
 <path style="fill:#cccccc" d="M 11,14 V 18 H 15 V 30 H 19 V 18 H 23 V 14 H 15 Z M 25,14 28,30 H 34 L 37,14 H 33 L 31,24.666 29,14 Z"/>
</svg>
